X:1
T:Title
%%score ( 1 2 ) { 3 | 4 }
L:1/8
Q:1/4=100
M:4/4
K:Ab
V:1 treble nm="Grand Piano, Soprano"
V:2 treble 
V:3 treble nm="Choir Pad, Calbuco, LMD"
V:4 bass 
V:1
 [CE]2 [Ec]2- [Ec][EB] [FA]>[EG] | [FA]>[DF] [CE]6 | [CE]2 [DE]2- [DE][DF][DG][CA] | %3
w: By~George~Frederick~Root,~1881 * * * * *|||
 [DB][Ec] [CA]6 | [CE]2 [Ec]2- [Ec][EB] [FA]>[EG] | [FA]>[DF] [CE]6 | E2 [EG]2- [EG][EG][=DB][DA] | %7
w: ||||
 [=DF][B,D] [B,E]6 |[M:6/8] [B,E] [DE]2 [DB] [DB]2 | [DE] [CE]2 [Ec] [Ec]2 | E [Ed]2 [Ed]dc | %11
w: ||||
 [EB] [Ec]2 [Ee] [Ee]2 | [CE] [DE]2 [DB] [DB]2 | [DE] [CE]2 [Ec] [Ec]2 | [Ec] [Dd]2 [Ec] [FB]2 | %15
w: ||||
 [FA] c2- [Ac-] [Ac]2 | [GB] A2- A3- | A6 |] %18
w: |||
V:2
 x8 | x8 | x8 | x8 | x8 | x8 | x8 | x8 |[M:6/8] x6 | x6 | z3 z E2 | x6 | x6 | x6 | x6 | z E2 z3 | %16
 x6 | x6 |] %18
V:3
 A,2 C2- CC D>D | D>[K:bass]A, A,6 | A,2 G,2- G,A,B,A, | G,G, A,6 | A,2[K:treble] C2- CC D>D | %5
 D>[K:bass]A, A,6 | C2 B,2- B,B,F,F, | A,A, G,6 |[M:6/8] G, B,2 G, G,2 | G, A,2 A, A,2 | %10
 C B,2 B,B,A, | G, A,2 C C2 | A, G,2 G, E,2 | G, A,2 A, A,2 | A, F,2 F, F,2 | %15
 A, A,2[K:treble] C E2 | D C2- C3- | C6 |] %18
V:4
 A,,2 A,,2- A,,A,, A,,>A,, | A,,>A,, A,,6 | A,,2 E,2- E,E,E,E, | E,E, A,,6 | %4
 A,,2 A,,2- A,,A,, A,,>A,, | A,,>A,, A,,6 | A,,2 B,,2- B,,B,,B,,B,, | B,,B,, E,6 | %8
[M:6/8] E, E,2 E, E,2 | E, A,,2 A,, A,,2 | A,, E,2 E, E,2 | .E,3 A, A,2 | A,, E,2 .E,3 | %13
 E, A,,2 A,, A,,2 | A,, B,,2 C, D,2 | =D, E,2 E, E,2 | E, A,,2- A,,3- | A,,6 |] %18

